app/images/src/instagram--passive.svg

<svg width="26" height="26" viewBox="0 0 26 26" fill="none" xmlns="http://www.w3.org/2000/svg">
<path d="M17.875 0H8.125C3.63838 0 0 3.63838 0 8.125V17.875C0 22.3616 3.63838 26 8.125 26H17.875C22.3616 26 26 22.3616 26 17.875V8.125C26 3.63838 22.3616 0 17.875 0ZM23.5625 17.875C23.5625 21.0112 21.0112 23.5625 17.875 23.5625H8.125C4.98875 23.5625 2.4375 21.0112 2.4375 17.875V8.125C2.4375 4.98875 4.98875 2.4375 8.125 2.4375H17.875C21.0112 2.4375 23.5625 4.98875 23.5625 8.125V17.875Z" fill="#AFAEAE"/>
<path d="M13 6.5C9.41037 6.5 6.5 9.41037 6.5 13C6.5 16.5896 9.41037 19.5 13 19.5C16.5896 19.5 19.5 16.5896 19.5 13C19.5 9.41037 16.5896 6.5 13 6.5ZM13 17.0625C10.7607 17.0625 8.9375 15.2393 8.9375 13C8.9375 10.7591 10.7607 8.9375 13 8.9375C15.2393 8.9375 17.0625 10.7591 17.0625 13C17.0625 15.2393 15.2393 17.0625 13 17.0625Z" fill="#AFAEAE"/>
<path d="M19.9854 6.87891C20.4637 6.87891 20.8515 6.49114 20.8515 6.01279C20.8515 5.53444 20.4637 5.14667 19.9854 5.14667C19.507 5.14667 19.1193 5.53444 19.1193 6.01279C19.1193 6.49114 19.507 6.87891 19.9854 6.87891Z" fill="#AFAEAE"/>
</svg>

<svg width="26" height="26" fill="none" xmlns="http://www.w3.org/2000/svg"><path d="M17.875 0h-9.75A8.126 8.126 0 000 8.125v9.75A8.126 8.126 0 008.125 26h9.75A8.126 8.126 0 0026 17.875v-9.75A8.126 8.126 0 0017.875 0zm5.688 17.875a5.694 5.694 0 01-5.688 5.688h-9.75a5.694 5.694 0 01-5.688-5.688v-9.75a5.694 5.694 0 015.688-5.688h9.75a5.694 5.694 0 015.688 5.688v9.75z" fill="#AFAEAE"/><path d="M13 6.5a6.5 6.5 0 100 13 6.5 6.5 0 000-13zm0 10.563A4.068 4.068 0 018.937 13 4.067 4.067 0 0113 8.937 4.067 4.067 0 0117.063 13 4.068 4.068 0 0113 17.063zm6.985-10.184a.866.866 0 100-1.732.866.866 0 000 1.732z" fill="#AFAEAE"/></svg>
